X: 1
T: Tobin's Favourite
R: jig
M: 6/8
L: 1/8
Z: Contributed 2017-02-23 15:26:59 by Dave Hunt daverhunt@aol.com
K: D Major
E|DFA dcd|ecA cde|faf gfg|ecA GFE|
DFA dcd|ecA cde|faf gec|edc d2:|
g|fga agf|efg efg|fef gfg|ecA GFE|
DFA dcd|ecA cde|faf gec|edc d2:||

